dist/img/svg/icon-whastapp.svg

<svg width="17" height="17" viewBox="0 0 17 17" fill="none" xmlns="http://www.w3.org/2000/svg">
<path d="M8.50678 17C7.01877 17 5.55794 16.6059 4.26698 15.8585L0.951237 17L1.63069 13.494C0.563947 12.0332 0 10.3141 0 8.5C0 3.81175 3.81174 0 8.49998 0C13.1882 0 17 3.81175 17 8.5C17.0136 13.1815 13.2018 17 8.50678 17ZM4.42325 14.4656L4.68144 14.6287C5.83652 15.3557 7.16146 15.7362 8.51357 15.7362C12.502 15.7362 15.7498 12.4884 15.7498 8.5C15.7498 4.51159 12.502 1.26379 8.51357 1.26379C4.51838 1.25699 1.27058 4.5048 1.27058 8.49321C1.27058 10.1171 1.80056 11.6527 2.80615 12.9436L2.98281 13.1679L2.60911 15.0839L4.42325 14.4656Z" fill="#39D956"/>
<path d="M4.21936 5.23179C4.21936 5.23179 4.71536 4.36209 5.12303 4.30773C5.53071 4.26017 6.05389 4.26017 6.19657 4.52516C6.33926 4.79014 6.97115 6.3393 6.97115 6.3393C6.97115 6.3393 7.07986 6.60429 6.91 6.86249C6.74014 7.11389 6.36644 7.48759 6.36644 7.48759C6.36644 7.48759 6.15581 7.75257 6.36644 8.03795C6.57707 8.32332 6.89641 8.8397 7.56228 9.50557C8.22814 10.1714 9.50552 10.6471 9.50552 10.6471C9.50552 10.6471 9.68897 10.6742 9.80448 10.5587C9.91999 10.4432 10.5519 9.65505 10.5519 9.65505C10.5519 9.65505 10.7557 9.39686 11.0886 9.54634C11.4216 9.70261 12.8824 10.4296 12.8824 10.4296C12.8824 10.4296 13.0523 10.4908 13.0523 10.749C13.0523 11.0072 12.9504 11.6391 12.7329 11.8497C12.5223 12.0603 11.8972 12.7194 10.9596 12.7194C10.0219 12.7194 7.79329 11.9584 6.60425 10.7694C5.4152 9.58031 4.36205 8.37768 4.11065 7.28375C3.87963 6.17624 3.91361 5.68023 4.21936 5.23179Z" fill="#39D956"/>
</svg>

<svg width="17" height="17" viewBox="0 0 17 17" fill="none" xmlns="http://www.w3.org/2000/svg"><path d="M8.507 17a8.46 8.46 0 01-4.24-1.142L.951 17l.68-3.506A8.398 8.398 0 010 8.5C0 3.812 3.812 0 8.5 0 13.188 0 17 3.812 17 8.5c.014 4.681-3.798 8.5-8.493 8.5zm-4.084-2.534l.258.163a7.184 7.184 0 003.833 1.107c3.988 0 7.236-3.248 7.236-7.236 0-3.988-3.248-7.236-7.236-7.236a7.237 7.237 0 00-7.243 7.23c0 1.623.53 3.159 1.535 4.45l.177.224-.374 1.916 1.814-.618z" fill="#39D956"/><path d="M4.22 5.232s.495-.87.903-.924c.408-.048.93-.048 1.074.217.142.265.774 1.814.774 1.814s.109.265-.061.523c-.17.252-.544.626-.544.626s-.21.265 0 .55c.211.285.53.802 1.196 1.468.666.665 1.944 1.141 1.944 1.141s.183.027.298-.088c.116-.116.748-.904.748-.904s.204-.258.537-.109c.333.157 1.793.884 1.793.884s.17.06.17.319c0 .258-.102.89-.32 1.1-.21.211-.835.87-1.772.87-.938 0-3.167-.76-4.356-1.95C5.415 9.58 4.362 8.378 4.111 7.284c-.231-1.108-.197-1.604.108-2.052z" fill="#39D956"/></svg>
